assets/img/braze_icons/message-notification-circle.svg

<svg fill="none" height="24" viewBox="0 0 24 24" width="24" xmlns="http://www.w3.org/2000/svg"><g fill="#801ed7"><path d="m21.1213 2.87868c1.1716 1.17157 1.1716 3.07107 0 4.24264s-3.071 1.17157-4.2426 0-1.1716-3.07107 0-4.24264 3.071-1.17157 4.2426 0z"/><path d="m21.9249 10.2994c-.043-.34127-.0646-.51187-.1496-.62055-.0791-.10111-.1738-.1589-.3-.18298-.1355-.02589-.343.04983-.758.20125-1.7703.64588-3.8325.25872-5.2528-1.16159-1.4203-1.4203-1.8075-3.48248-1.1616-5.25276.1514-.41502.2271-.62253.2012-.75808-.0241-.12611-.0819-.22084-.183-.29997-.1086-.08504-.2793-.10655-.6205-.14958-.3932-.04959-.7939-.07514-1.2006-.07514-5.24666 0-9.49995 4.25329-9.49995 9.5 0 1.06.17399 2.0814.49575 3.036.05659.1679.08991.2673.11156.3406l.00708.0246-.00375.0078c-.0257.053-.0639.1242-.13536.2565l-1.65188 3.0575c-.10238.1894-.2092.3871-.28267.5589-.07302.1708-.1913.4842-.1331.8557.06822.4354.3245.8188.70078 1.0483.32101.1959.6558.2064.84154.2042.18688-.0022.4103-.0253.62447-.0475l5.15496-.5329c.08256-.0085.12572-.0129.15734-.0153l.00407-.0003.01237.0043c.03885.014.09154.0342.18249.0693 1.0609.4087 2.2127.6323 3.4143.6323 5.2468 0 9.5-4.2533 9.5-9.5 0-.4067-.0255-.8074-.0751-1.2006z"/></g></svg>

<svg width="24" height="24" viewBox="0 0 24 24" fill="none" xmlns="http://www.w3.org/2000/svg">
<path d="M21.1213 2.87868C22.2929 4.05025 22.2929 5.94975 21.1213 7.12132C19.9497 8.29289 18.0503 8.29289 16.8787 7.12132C15.7071 5.94975 15.7071 4.05025 16.8787 2.87868C18.0503 1.70711 19.9497 1.70711 21.1213 2.87868Z" fill="#801ED7"/>
<path d="M21.9249 10.2994C21.8819 9.95813 21.8603 9.78753 21.7753 9.67885C21.6962 9.57774 21.6015 9.51995 21.4753 9.49587C21.3398 9.46998 21.1323 9.5457 20.7173 9.69712C18.947 10.343 16.8848 9.95584 15.4645 8.53553C14.0442 7.11523 13.657 5.05305 14.3029 3.28277C14.4543 2.86775 14.53 2.66024 14.5041 2.52469C14.48 2.39858 14.4222 2.30385 14.3211 2.22472C14.2125 2.13968 14.0418 2.11817 13.7006 2.07514C13.3074 2.02555 12.9067 2 12.5 2C7.25334 2 3.00005 6.25329 3.00005 11.5C3.00005 12.56 3.17404 13.5814 3.4958 14.536C3.55239 14.7039 3.58571 14.8033 3.60736 14.8766L3.61444 14.9012L3.61069 14.909C3.58499 14.962 3.54679 15.0332 3.47533 15.1655L1.82345 18.223C1.72107 18.4124 1.61425 18.6101 1.54078 18.7819C1.46776 18.9527 1.34948 19.2661 1.40768 19.6376C1.4759 20.073 1.73218 20.4564 2.10846 20.6859C2.42947 20.8818 2.76426 20.8923 2.95 20.8901C3.13688 20.8879 3.3603 20.8648 3.57447 20.8426L8.72943 20.3097C8.81199 20.3012 8.85515 20.2968 8.88677 20.2944L8.89084 20.2941L8.90321 20.2984C8.94206 20.3124 8.99475 20.3326 9.0857 20.3677C10.1466 20.7764 11.2984 21 12.5 21C17.7468 21 22 16.7467 22 11.5C22 11.0933 21.9745 10.6926 21.9249 10.2994Z" fill="#801ED7"/>
</svg>
